svg/business/shopping_bag_1_fill.svg

<?xml version="1.0" encoding="UTF-8"?>
<svg width="24px" height="24px" viewBox="0 0 24 24" version="1.1" xmlns="http://www.w3.org/2000/svg" xmlns:xlink="http://www.w3.org/1999/xlink">
    <title>shopping_bag_1_fill</title>
    <g id="页面-1" stroke="none" stroke-width="1" fill="none" fill-rule="evenodd">
        <g id="Business" transform="translate(-912.000000, -48.000000)" fill-rule="nonzero">
            <g id="shopping_bag_1_fill" transform="translate(912.000000, 48.000000)">
                <path d="M24,0 L24,24 L0,24 L0,0 L24,0 Z M12.5934901,23.257841 L12.5819402,23.2595131 L12.5108777,23.2950439 L12.4918791,23.2987469 L12.4918791,23.2987469 L12.4767152,23.2950439 L12.4056548,23.2595131 C12.3958229,23.2563662 12.3870493,23.2590235 12.3821421,23.2649074 L12.3780323,23.275831 L12.360941,23.7031097 L12.3658947,23.7234994 L12.3769048,23.7357139 L12.4804777,23.8096931 L12.4953491,23.8136134 L12.4953491,23.8136134 L12.5071152,23.8096931 L12.6106902,23.7357139 L12.6232938,23.7196733 L12.6232938,23.7196733 L12.6266527,23.7031097 L12.609561,23.275831 C12.6075724,23.2657013 12.6010112,23.2592993 12.5934901,23.257841 L12.5934901,23.257841 Z M12.8583906,23.1452862 L12.8445485,23.1473072 L12.6598443,23.2396597 L12.6498822,23.2499052 L12.6498822,23.2499052 L12.6471943,23.2611114 L12.6650943,23.6906389 L12.6699349,23.7034178 L12.6699349,23.7034178 L12.678386,23.7104931 L12.8793402,23.8032389 C12.8914285,23.8068999 12.9022333,23.8029875 12.9078286,23.7952264 L12.9118235,23.7811639 L12.8776777,23.1665331 C12.8752882,23.1545897 12.8674102,23.1470016 12.8583906,23.1452862 L12.8583906,23.1452862 Z M12.1430473,23.1473072 C12.1332178,23.1423925 12.1221763,23.1452606 12.1156365,23.1525954 L12.1099173,23.1665331 L12.0757714,23.7811639 C12.0751323,23.7926639 12.0828099,23.8018602 12.0926481,23.8045676 L12.108256,23.8032389 L12.3092106,23.7104931 L12.3186497,23.7024347 L12.3186497,23.7024347 L12.3225043,23.6906389 L12.340401,23.2611114 L12.337245,23.2485176 L12.337245,23.2485176 L12.3277531,23.2396597 L12.1430473,23.1473072 Z" id="MingCute" fill-rule="nonzero"></path>
                <path d="M12,2 C14.2091,2 16,3.79086 16,6 L18.0351,6 C19.1119,6 19.9954,6.85252 20.0339,7.92862 L20.4624,19.9286 C20.5028,21.0604 19.5963,22 18.4637,22 L5.5364,22 C4.40385,22 3.49726,21.0605 3.53768,19.9286 L3.96625,7.92862 C4.00468,6.85252 4.88819,6 5.96498,6 L8,6 C8,3.79086 9.79086,2 12,2 Z M10,8 L8,8 L8,9 C8,9.55228 8.44772,10 9,10 C9.51283143,10 9.93550653,9.61395571 9.9932722,9.11662025 L10,9 L10,8 Z M16,8 L14,8 L14,9 C14,9.55228 14.4477,10 15,10 C15.5523,10 16,9.55228 16,9 L16,8 Z M12,4 C10.9456091,4 10.0818322,4.81587733 10.0054856,5.85073759 L10,6 L14,6 C14,4.89543 13.1046,4 12,4 Z" id="形状" fill="#09244B"></path>
            </g>
        </g>
    </g>
</svg>

<svg xmlns="http://www.w3.org/2000/svg" width="24" height="24"><g fill="none" fill-rule="nonzero"><path d="M24 0v24H0V0zM12.593 23.258l-.011.002-.071.035-.02.004-.014-.004-.071-.035c-.01-.004-.019-.001-.024.005l-.004.01-.017.428.005.02.01.013.104.074.015.004.012-.004.104-.074.012-.016.004-.017-.017-.427c-.002-.01-.009-.017-.017-.018m.265-.113-.013.002-.185.093-.01.01-.003.011.018.43.005.012.008.007.201.093c.012.004.023 0 .029-.008l.004-.014-.034-.614c-.003-.012-.01-.02-.02-.022m-.715.002a.023.023 0 0 0-.027.006l-.006.014-.034.614c0 .012.007.02.017.024l.015-.002.201-.093.01-.008.004-.011.017-.43-.003-.012-.01-.01z"/><path fill="#09244B" d="M12 2a4 4 0 0 1 4 4h2.035a2 2 0 0 1 1.999 1.929l.428 12A2 2 0 0 1 18.464 22H5.536a2 2 0 0 1-1.998-2.071l.428-12A2 2 0 0 1 5.965 6H8a4 4 0 0 1 4-4m-2 6H8v1a1 1 0 0 0 1.993.117L10 9zm6 0h-2v1a1 1 0 1 0 2 0zm-4-4a2 2 0 0 0-1.995 1.85L10 6h4a2 2 0 0 0-2-2"/></g></svg>
